X:1
T:Bowdler, 76.76 D
T:Bowdler, 76.76 D
T:Cyril William Bowdler, 1891
T:Public Domain Courtesy of the Cyber Hymnal™
C:Cyril William Bowdler, 1891
Z:Public Domain
Z:Courtesy of the Cyber Hymnal™
%%score ( 1 2 ) 3
L:1/8
Q:1/4=110
M:4/4
K:F
V:1 treble 
V:2 treble 
V:3 bass 
V:1
 [FA]2 | G3 D D2 [CE]2 | [CF]4 C2 [FA]2 | [DG]3 D D2 [CE]2 | [CF]4 z2 [Fc]2 | %5
 [FB]2 [FA]2 [DG]2 [DA]2 | [DB]4 D2 [DG]2 | [CF]2 [FA]2 A3 (z G) | F4 z2 [FA]2 | %9
 [DA]2 [DG]2 [FA]2 [G=B]2 | [Gc]4 G2 G2 | [FA]2 [FG]2 [FA]2 [F=B]2 | [Ec]4 z2 [Gc]2 | %13
 [Ad]2 [Ac]2 [G=B]2 [FA]2 | [EG]4 [Gc]2 [Ec]2 | [Fc]2 [F=B]2 [FA]2 [FB]2 | [Ec]6 |] %17
V:2
 x2 | G3 D D2 x2 | x4 C2 x2 | x3 D D2 x2 | x8 | x8 | x4 D2 x2 | x4 E2 E2 x | F4 x4 | x8 | %10
 x4 G2 G2 | x8 | x8 | x8 | x8 | x8 | x6 |] %17
V:3
 [F,C]2 | [F,B,]3 [F,B,] [F,B,]2 [F,B,]2 | [F,A,]4 [F,A,]2 [F,C]2 | %3
 [F,B,]3 [F,B,] [F,B,]2 [F,G,]2 | [F,A,]4 z2 [F,A,]2 | [D,B,]2 [C,C]2 [B,,D]2 [A,,C]2 | %6
 [G,,B,]4 [G,,B,]2 [B,,B,]2 | [C,A,]2 [C,C]2 [C,B,]2 [C,B,]2 x | [F,A,]4 z2 [F,C]2 | %9
 [F,=B,]2 [F,B,]2 [F,C]2 [F,D]2 | [E,C]4 [E,C]2 [E,C]2 | [D,A,]2 [D,=B,]2 [D,A,]2 [D,G,]2 | %12
 [C,G,]4 z2 [E,C]2 | [F,A,]2 [F,A,]2 [F,=B,]2 [F,C]2 | [G,C]4 [G,E]2 [G,C]2 | %15
 [G,D]2 [G,D]2 [G,C]2 [G,D]2 | [C,C]6 |] %17

